!!!COM:	Bach, Johann Sebastian
!!!CDT:	1685/02/21/-1750/07/28/
!!!OTL@@DE:	Zeuch ein zu deinen Toren
!!!SCT:	BWV 28/6
!!!PC#:	23
!!!AGN:	chorale
**kern	**kern	**kern	**kern
*ICvox	*ICvox	*ICvox	*ICvox
*Ibass	*Itenor	*Ialto	*Isoprn
*I"Bass	*I"Tenor	*I"Alto	*I"Soprano
*>[A,A,B]	*>[A,A,B]	*>[A,A,B]	*>[A,A,B]
*>norep[A,B]	*>norep[A,B]	*>norep[A,B]	*>norep[A,B]
*>A	*>A	*>A	*>A
*clefF4	*clefGv2	*clefG2	*clefG2
*k[]	*k[]	*k[]	*k[]
*a:	*a:	*a:	*a:
*M4/4	*M4/4	*M4/4	*M4/4
*met(c)	*met(c)	*met(c)	*met(c)
*MM100	*MM100	*MM100	*MM100
4AA	4c	4e	4a
=1	=1	=1	=1
4A	4c	4e	4a
4G#	4B	4e	4b
4A	4A	4e	4cc
4F#	4A	4d	4dd
=2	=2	=2	=2
2GnX	8GnXL	4d	4.b
.	8F#	.	.
.	8G	8gL	.
.	8AJ	8f#J	8cc
4GG;	4B;	4g;	4dd;
4G#	4B	4e	4ee
=3	=3	=3	=3
8AL	8AL	4e	4cc
8GnXJ	8BJ	.	.
8FnXL	4c	[4a	4a
8EJ	.	.	.
4D	4f	4a]	4b
4E	8eL	4g#	4b
.	8dJ	.	.
=4	=4	=4	=4
2.AA;	2.c;	2.e;	2.a;
=:|!	=:|!	=:|!	=:|!
*>B	*>B	*>B	*>B
4AA	4c	[4a	4ee
=5	=5	=5	=5
4BB	4d	8aL]	4dd
.	.	8g#J	.
4C	4e	[4a	4cc
8DL	8fL	8aL]	4b
8EJ	[8eJ	8g#J	.
4F	8eL]	8aL	4a
.	8dJ	8AJ	.
=6	=6	=6	=6
2E;	2G#;	2e;	2b;
4r	4ry	4ry	4r
4E	4e	4g#	4b
=7	=7	=7	=7
4A	4e	4a	4cc
4B	4d	4gnX	4dd
8cL	8cL	4g	4ee
8BJ	8dJ	.	.
8AL	4e	4a	4cc
8GnXJ	.	.	.
=8	=8	=8	=8
8F#L	4A	4a	4.dd
8EJ	.	.	.
4D	4d	8gL	.
.	.	8f#J	8cc
4G;	4d;	4g;	4b;
4F	4d	4g	4b
=9	=9	=9	=9
4E	4G	4g	4cc
4D	8AL	4fnX	4dd
.	8BJ	.	.
4C	8cL	4e	4ee
.	8dJ	.	.
8BBL	4e	[4a	4cc
8AAJ	.	.	.
=10	=10	=10	=10
8BBL	4d	8aL]	4.dd
8CJ	.	8g	.
4D	4A	8f#	.
.	.	8eJ	8cc
4GG;	4B;	4d;	4b;
4G#	4B	4e	4ee
=11	=11	=11	=11
8AL	8AL	4e	8ccL
8GnXJ	8BJ	.	8bJ
8FL	4c	[4a	4a
8EJ	.	.	.
4D	4f	4a]	4b
4E	8eL	4g#	4b
.	8dJ	.	.
=12	=12	=12	=12
2.AA;	2.c#;	2.e;	2.a;
==	==	==	==
*-	*-	*-	*-
!!!hum2abc: -Q ''
!!!title: @{PC#}. @{OTL@@DE}
!!!YOR1: 371 vierstimmige Choralges&auml;nge von Johann Sebastian Bach, 
!!!YOR2: 4th ed. by Alfred D&ouml;rffel (Leipzig: Breitkopf und H&auml;rtel, 
!!!YOR2: c.1875). 178 pp. Plate "V.A.10".  reprint: J.S. Bach, 371 Four-Part 
!!!YOR4: Chorales (New York: Associated Music Publishers, Inc., c.1940).
!!!SMS: B&H, 4th ed, Alfred D&ouml;rffel, c.1875, plate V.A.10
!!!EED:  Craig Stuart Sapp
!!!EEV:  2009/05/22
